openmetadata-ui/src/main/resources/ui/src/assets/svg/icon-up.svg

<svg width="513" height="513" viewBox="0 0 513 513" fill="none" xmlns="http://www.w3.org/2000/svg">
<path d="M437.021 437.021C389.011 485.03 323.897 512.002 256.001 512.002C188.105 512.002 122.99 485.03 74.9809 437.021C26.9715 389.011 0 323.897 0 256.001C0 188.105 26.9715 122.99 74.9809 74.9809C122.99 26.9714 188.105 0 256.001 0C323.897 0 389.011 26.9714 437.021 74.9809C485.03 122.99 512.002 188.105 512.002 256.001C512.002 323.897 485.03 389.011 437.021 437.021ZM256.001 32.0009C132.487 32.0009 32.0009 132.487 32.0009 256.001C32.0009 379.515 132.487 480.001 256.001 480.001C379.515 480.001 480.001 379.515 480.001 256.001C480.001 132.487 379.515 32.0009 256.001 32.0009V32.0009ZM368.635 307.974C371.635 304.973 373.321 300.904 373.321 296.66C373.321 292.417 371.635 288.347 368.635 285.347L267.314 184.027C264.313 181.027 260.244 179.341 256.001 179.341C251.758 179.341 247.688 181.027 244.688 184.027L143.368 285.347C140.397 288.354 138.737 292.414 138.75 296.64C138.763 300.867 140.448 304.917 143.436 307.905C146.425 310.894 150.475 312.579 154.702 312.592C158.928 312.604 162.988 310.944 165.995 307.974L256.001 217.968L346.008 307.974C349.008 310.974 353.078 312.66 357.321 312.66C361.565 312.66 365.634 310.974 368.635 307.974V307.974Z" fill="#37352F"/>
</svg>

<svg xmlns="http://www.w3.org/2000/svg" width="513" height="513" fill="none"><path fill="#37352F" d="M437.021 437.021a256.003 256.003 0 0 1-362.04 0 256.002 256.002 0 1 1 362.04 0Zm-181.02-405.02c-123.514 0-224 100.486-224 224s100.486 224 224 224 224-100.486 224-224-100.486-224-224-224Zm112.634 275.973a16.003 16.003 0 0 0 0-22.627l-101.321-101.32a16.002 16.002 0 0 0-22.626 0l-101.32 101.32a15.998 15.998 0 0 0 .068 22.558 16.002 16.002 0 0 0 22.559.069l90.006-90.006 90.007 90.006a16 16 0 0 0 22.627 0Z"/></svg>
